X:88
T:The Cloonagroe Reel                                                                               
M:4/4                                                                                               
L:1/8                                                                                               
K:Em                                                                                                
e2 dB GA Bd|e2 edea ag|e2 dB EF GA|Bc BA GE Eg :|                                                   
e3 f g3 a|a2 ba ge dg|ed ef g3 a|ag ed BG Ad|                                                       
ec ef g3 a|a2 ba ge dg|gabg agea|ge dB G2 ag |>|
